zag1/images/icons/vending-machine.svg

<svg width="63" height="63" viewBox="0 0 63 63" fill="none" xmlns="http://www.w3.org/2000/svg">
<g clip-path="url(#clip0)">
<g clip-path="url(#clip1)">
<path d="M33.7046 53.9997H29.2949C28.8329 54.0024 28.3854 53.8384 28.0346 53.5376C27.6838 53.2369 27.4533 52.8196 27.3856 52.3625L26.9544 49.459C25.2157 49.0206 23.5507 48.3297 22.0124 47.4084L19.6607 49.1487C19.2879 49.4215 18.8301 49.5527 18.3694 49.5186C17.9086 49.4846 17.4751 49.2875 17.1465 48.9628L14.0348 45.853C13.7057 45.5268 13.5057 45.0927 13.4716 44.6306C13.4374 44.1686 13.5714 43.7098 13.8489 43.3388L15.5967 40.9862C14.6748 39.4484 13.9839 37.7836 13.5461 36.045L10.6453 35.6139C10.1869 35.5474 9.76805 35.3176 9.4657 34.9667C9.16335 34.6159 8.99789 34.1677 8.99978 33.7045V29.2948C8.99747 28.8326 9.16194 28.3851 9.46301 28.0343C9.76408 27.6836 10.1815 27.4532 10.6388 27.3855L13.5414 26.9543C13.9813 25.2154 14.6737 23.5503 15.5967 22.0122L13.8555 19.6615C13.5779 19.2904 13.4438 18.8314 13.478 18.3692C13.5121 17.907 13.7122 17.4727 14.0413 17.1463L17.1465 14.0347C17.4753 13.7103 17.9088 13.5135 18.3694 13.4794C18.83 13.4454 19.2878 13.5763 19.6607 13.8488L22.0133 15.59C23.5516 14.6687 25.2167 13.9779 26.9554 13.5394L27.3865 10.6396C27.454 10.1823 27.6842 9.76479 28.0347 9.46355C28.3853 9.16232 28.8327 8.99761 29.2949 8.99966H33.7046C34.1668 8.99713 34.6143 9.1614 34.9651 9.46232C35.3158 9.76323 35.5462 10.1806 35.614 10.6377L36.046 13.5413C37.7851 13.9808 39.4503 14.6732 40.9881 15.5965L43.3388 13.8553C43.71 13.5778 44.169 13.4437 44.6312 13.4778C45.0934 13.512 45.5277 13.7121 45.854 14.0412L48.9657 17.1519C49.2944 17.4783 49.4942 17.9124 49.5283 18.3743C49.5625 18.8363 49.4287 19.295 49.1515 19.6662L47.4094 22.0187C48.3307 23.5571 49.0216 25.2221 49.46 26.9608L52.3608 27.392C52.8181 27.4593 53.2358 27.6894 53.537 28.04C53.8383 28.3906 54.0029 28.8382 54.0007 29.3004V33.7101C54.0034 34.1723 53.8392 34.6199 53.5383 34.9707C53.2373 35.3215 52.8199 35.5519 52.3626 35.6195L49.4591 36.0515C49.0211 37.7904 48.3302 39.4555 47.4085 40.9936L49.1497 43.3443C49.4271 43.7157 49.5611 44.1748 49.527 44.6371C49.4928 45.0994 49.2928 45.5339 48.9638 45.8604L45.8522 48.9712C45.5259 49.3001 45.0918 49.5 44.6298 49.5341C44.1678 49.5683 43.709 49.4343 43.3379 49.157L40.9863 47.4149C39.4481 48.3366 37.783 49.0275 36.0442 49.4655L35.6131 52.3653C35.5445 52.8216 35.3139 53.238 34.9634 53.5381C34.6129 53.8383 34.166 54.0021 33.7046 53.9997ZM21.9789 45.9896C22.1002 45.9901 22.219 46.0245 22.3218 46.089C23.9646 47.1281 25.7731 47.8785 27.6689 48.3078C27.7953 48.3365 27.9102 48.4026 27.9983 48.4976C28.0865 48.5926 28.144 48.712 28.1632 48.8402L28.6575 52.1702C28.6813 52.3221 28.7586 52.4605 28.8755 52.5604C28.9924 52.6602 29.1412 52.715 29.2949 52.7147H33.7046C33.8591 52.7153 34.0087 52.6602 34.1259 52.5595C34.2431 52.4588 34.3202 52.3193 34.3429 52.1665L34.8372 48.8402C34.8562 48.7118 34.9135 48.5921 35.0018 48.4969C35.09 48.4017 35.2049 48.3355 35.3315 48.3069C37.2289 47.8776 39.0389 47.1272 40.6834 46.0881C40.7929 46.0194 40.9206 45.9852 41.0499 45.99C41.1791 45.9948 41.3039 46.0384 41.4081 46.115L44.1035 48.1164C44.2274 48.2097 44.3809 48.255 44.5355 48.2441C44.6902 48.2332 44.8358 48.1667 44.9453 48.0569L48.057 44.9452C48.1654 44.8349 48.2309 44.6896 48.2418 44.5353C48.2527 44.381 48.2083 44.2279 48.1165 44.1034L46.1179 41.4034C46.0409 41.2992 45.9971 41.1743 45.9921 41.0448C45.9871 40.9154 46.0213 40.7875 46.09 40.6777C47.1285 39.0349 47.8789 37.2268 48.3088 35.3314C48.3374 35.205 48.4035 35.0901 48.4985 35.0019C48.5935 34.9137 48.713 34.8562 48.8412 34.8371L52.1712 34.3419C52.3227 34.3182 52.4608 34.2411 52.5604 34.1246C52.6601 34.008 52.7148 33.8597 52.7148 33.7064V29.2948C52.7151 29.1405 52.6599 28.9912 52.5593 28.8741C52.4586 28.7571 52.3193 28.6802 52.1666 28.6574L48.8393 28.1631C48.7111 28.144 48.5917 28.0866 48.4966 27.9984C48.4016 27.9102 48.3355 27.7953 48.3069 27.6688C47.8777 25.773 47.1272 23.9645 46.0882 22.3216C46.0192 22.2121 45.985 22.0843 45.99 21.955C45.9949 21.8256 46.0389 21.7008 46.116 21.5969L48.1165 18.8968C48.2067 18.7727 48.25 18.6207 48.239 18.4677C48.2279 18.3147 48.1632 18.1705 48.0561 18.0606L44.9435 14.9461C44.8339 14.8364 44.6884 14.7699 44.5337 14.759C44.379 14.7481 44.2256 14.7934 44.1017 14.8867L41.4016 16.8834C41.2976 16.9604 41.1727 17.0042 41.0434 17.009C40.9141 17.0138 40.7863 16.9794 40.6769 16.9103C39.0334 15.8721 37.2247 15.122 35.3288 14.6925C35.2022 14.6639 35.0872 14.5976 34.999 14.5024C34.9107 14.4072 34.8534 14.2876 34.8345 14.1592L34.3392 10.8291C34.3157 10.6777 34.2388 10.5397 34.1224 10.44C34.0061 10.3403 33.8579 10.2856 33.7046 10.2856H29.2949C29.1407 10.2852 28.9915 10.3403 28.8745 10.4407C28.7575 10.5412 28.6805 10.6804 28.6575 10.8329L28.1632 14.1601C28.1441 14.2883 28.0867 14.4078 27.9985 14.5028C27.9103 14.5978 27.7954 14.6639 27.6689 14.6925C25.7732 15.1222 23.9648 15.8726 22.3218 16.9113C22.2123 16.9804 22.0846 17.0147 21.9552 17.0099C21.8259 17.0051 21.701 16.9613 21.597 16.8843L18.897 14.8848C18.7724 14.7932 18.6192 14.7489 18.4649 14.7599C18.3107 14.771 18.1654 14.8367 18.0552 14.9452L14.9463 18.056C14.8376 18.1664 14.772 18.3119 14.7611 18.4664C14.7502 18.6209 14.7948 18.7742 14.8868 18.8987L16.8826 21.5988C16.9596 21.7028 17.0034 21.8276 17.0082 21.957C17.013 22.0863 16.9786 22.2141 16.9095 22.3235C15.8708 23.9681 15.1207 25.7781 14.6917 27.6753C14.6631 27.8018 14.597 27.9167 14.502 28.0049C14.407 28.0931 14.2875 28.1505 14.1593 28.1696L10.8293 28.6639C10.6778 28.6877 10.5397 28.7647 10.44 28.8813C10.3404 28.9978 10.2856 29.1461 10.2857 29.2995V33.7092C10.2851 33.8635 10.3401 34.013 10.4405 34.1302C10.541 34.2474 10.6803 34.3245 10.833 34.3475L14.1611 34.8418C14.2893 34.8608 14.4087 34.9182 14.5036 35.0065C14.5984 35.0947 14.6643 35.2096 14.6926 35.3361C15.1227 37.2313 15.8727 39.0393 16.9105 40.6823C16.9799 40.7918 17.0144 40.9198 17.0096 41.0494C17.0048 41.1789 16.9608 41.304 16.8835 41.408L14.8849 44.1034C14.7935 44.2279 14.7494 44.3809 14.7605 44.535C14.7715 44.689 14.8371 44.8341 14.9453 44.9443L18.0561 48.056C18.1666 48.1645 18.3122 48.23 18.4667 48.2407C18.6211 48.2514 18.7744 48.2067 18.8988 48.1145L21.5989 46.1159C21.7089 46.0344 21.842 45.9902 21.9789 45.9896Z" fill="#E5357E"/>
<path d="M44.5665 31.4934C44.5667 28.9382 43.8172 26.4392 42.4109 24.3058C41.0047 22.1724 39.0035 20.4985 36.6552 19.4912C34.307 18.484 31.7148 18.1878 29.1999 18.6393C26.6849 19.0909 24.3577 20.2702 22.5065 22.0314C20.6552 23.7926 19.3613 26.0581 18.785 28.5474C18.2087 31.0368 18.3753 33.6404 19.2642 36.036C20.1531 38.4315 21.7253 40.5137 23.7859 42.0245C25.8466 43.5353 28.3051 44.4084 30.8571 44.5357V39.0203C29.4356 38.8608 28.1225 38.1836 27.1684 37.1179C26.2142 36.0521 25.6857 34.6725 25.6837 33.242V30.2846C25.6839 30.238 25.6889 30.1917 25.6986 30.1461H25.6902C25.6902 30.0618 25.7068 29.9782 25.7391 29.9002C25.7715 29.8223 25.8188 29.7515 25.8786 29.6918C25.9383 29.6322 26.0092 29.5849 26.0872 29.5527C26.1652 29.5205 26.2488 29.504 26.3332 29.5041H27.9062V25.8981C27.9062 25.7276 27.9739 25.5641 28.0945 25.4435C28.2151 25.3229 28.3786 25.2552 28.5491 25.2552C28.7197 25.2552 28.8832 25.3229 29.0038 25.4435C29.1244 25.5641 29.1921 25.7276 29.1921 25.8981V29.5041H33.8211V25.8981C33.8211 25.7276 33.8888 25.5641 34.0094 25.4435C34.13 25.3229 34.2935 25.2552 34.464 25.2552C34.6346 25.2552 34.7981 25.3229 34.9187 25.4435C35.0393 25.5641 35.107 25.7276 35.107 25.8981V29.5041H36.6865C36.7709 29.504 36.8545 29.5205 36.9325 29.5527C37.0105 29.5849 37.0814 29.6322 37.1411 29.6918C37.2008 29.7515 37.2482 29.8223 37.2805 29.9002C37.3129 29.9782 37.3295 30.0618 37.3295 30.1461H37.3081C37.3178 30.1917 37.3228 30.238 37.323 30.2846V33.242C37.3211 34.6731 36.7923 36.0533 35.8376 37.1193C34.8828 38.1853 33.569 38.8623 32.1468 39.0213V44.5357C35.4955 44.372 38.653 42.9265 40.9651 40.4985C43.2772 38.0705 44.5667 34.8461 44.5665 31.4934Z" fill="#E5357E"/>
</g>
</g>
<defs>
<clipPath id="clip0">
<rect width="63" height="63" fill="white"/>
</clipPath>
<clipPath id="clip1">
<rect width="45" height="45" fill="white" transform="translate(9 9)"/>
</clipPath>
</defs>
</svg>

<svg width="63" height="63" fill="none" xmlns="http://www.w3.org/2000/svg"><g clip-path="url(#clip0)"><g clip-path="url(#clip1)" fill="#E5357E"><path d="M33.705 54h-4.41a1.919 1.919 0 01-1.91-1.638l-.43-2.903a18.35 18.35 0 01-4.943-2.05l-2.351 1.74a1.944 1.944 0 01-2.515-.186l-3.111-3.11a1.92 1.92 0 01-.186-2.514l1.748-2.353a18.301 18.301 0 01-2.05-4.941l-2.902-.431A1.921 1.921 0 019 33.704v-4.41a1.92 1.92 0 011.639-1.909l2.902-.43a18.351 18.351 0 012.056-4.943l-1.742-2.35a1.92 1.92 0 01.186-2.516l3.105-3.111a1.946 1.946 0 012.515-.186l2.352 1.741a18.354 18.354 0 014.942-2.05l.432-2.9A1.92 1.92 0 0129.295 9h4.41a1.92 1.92 0 011.909 1.638l.432 2.903c1.74.44 3.404 1.132 4.942 2.056l2.35-1.742a1.922 1.922 0 012.516.186l3.112 3.11a1.922 1.922 0 01.185 2.515L47.41 22.02a18.352 18.352 0 012.051 4.942l2.9.431A1.919 1.919 0 0154 29.3v4.41a1.919 1.919 0 01-1.637 1.91l-2.904.431a18.32 18.32 0 01-2.05 4.943l1.74 2.35a1.924 1.924 0 01-.185 2.516l-3.112 3.111a1.921 1.921 0 01-2.514.186l-2.352-1.742a18.322 18.322 0 01-4.942 2.05l-.43 2.9A1.92 1.92 0 0133.703 54zm-11.726-8.01a.65.65 0 01.343.099 17.045 17.045 0 005.347 2.219.644.644 0 01.494.532l.494 3.33a.644.644 0 00.638.545h4.41a.643.643 0 00.638-.549l.494-3.326a.643.643 0 01.494-.533 17.072 17.072 0 005.352-2.219.645.645 0 01.725.027l2.695 2.001a.643.643 0 00.842-.06l3.112-3.11a.65.65 0 00.06-.843l-2-2.7a.645.645 0 01-.027-.725 17.073 17.073 0 002.219-5.347.643.643 0 01.532-.494l3.33-.495a.643.643 0 00.544-.636v-4.411a.644.644 0 00-.548-.638l-3.328-.494a.643.643 0 01-.532-.494 17.046 17.046 0 00-2.219-5.347.641.641 0 01.028-.725l2-2.7a.65.65 0 00-.06-.836l-3.112-3.115a.643.643 0 00-.842-.06l-2.7 1.997a.642.642 0 01-.725.027 17.08 17.08 0 00-5.348-2.217.643.643 0 01-.495-.534l-.495-3.33a.642.642 0 00-.634-.543h-4.41a.643.643 0 00-.638.547l-.494 3.327a.643.643 0 01-.494.533 17.067 17.067 0 00-5.347 2.218.642.642 0 01-.725-.027l-2.7-2a.651.651 0 00-.842.061l-3.109 3.111a.65.65 0 00-.06.843l1.997 2.7a.642.642 0 01.027.724 17.075 17.075 0 00-2.218 5.352.643.643 0 01-.533.495l-3.33.494a.644.644 0 00-.543.635v4.41a.643.643 0 00.547.638l3.328.495a.64.64 0 01.532.494 17.096 17.096 0 002.217 5.346.641.641 0 01-.026.726l-2 2.695a.65.65 0 00.061.841l3.111 3.112a.65.65 0 00.843.059l2.7-2a.643.643 0 01.38-.125z"/><path d="M44.566 31.493a13.058 13.058 0 00-22.06-9.462 13.059 13.059 0 008.351 22.505V39.02a5.822 5.822 0 01-5.173-5.778v-2.957a.65.65 0 01.015-.139h-.009a.643.643 0 01.643-.642h1.573v-3.606a.643.643 0 111.286 0v3.606h4.63v-3.606a.643.643 0 111.285 0v3.606h1.58a.643.643 0 01.643.642h-.022a.65.65 0 01.015.139v2.957a5.823 5.823 0 01-5.176 5.78v5.514a13.057 13.057 0 0012.42-13.043z"/></g></g><defs><clipPath id="clip0"><path fill="#fff" d="M0 0h63v63H0z"/></clipPath><clipPath id="clip1"><path fill="#fff" transform="translate(9 9)" d="M0 0h45v45H0z"/></clipPath></defs></svg>
